X: 02140
T: BEEKA-WEEKA
C: Bob McQuillen  June '73
B: Bob's Note Book 1&2 #140
N: With love to Becky McQ. from her Dad.
R: reel
Z: 2005 John Chambers <jc:trillian.mit.edu>
M: C
L: 1/8
K: A
E2 \
| A2cB AGFE | ABcA d2cd | e2a2 e2dc | B2e2 E2FG |\
| A2cB AGFE | ABcA d2cd | e2a2 e2dc | B2G2 A2  :|
|: AB \
| c2A2 d2ed | c2A2 B2AB | c2e2 dcBA | B2e2 E2AB |\
| c2A2 d2ed | c2A2 B2cd | e2a2 f2a2 | edcB A2  :|

%%sep 1 0 500
%%sep 1 0 500
%%center -- END of Bob's Note Book 1-2 --

%%newpage

%%sep 1 1 500

